packages/icons/src/assets/graph-search.svg

<svg xmlns="http://www.w3.org/2000/svg" xml:space="preserve" style="fill-rule:evenodd;clip-rule:evenodd;stroke-linejoin:round;stroke-miterlimit:2" viewBox="0 0 24 24"><path d="M8.25 17.25h-4.5V6.008h4.5zm-3-1.5h1.5V7.508h-1.5zm14.273 1.958c.457-.668.727-1.47.727-2.333 0-.127-.008-.255-.023-.375V4.508h-4.5v6.765a4.3 4.3 0 0 0-1.5.442V8.258h-4.5v8.992h2.716a4.13 4.13 0 0 0 3.667 2.25c.863 0 1.672-.27 2.332-.727l2.76 2.76 1.058-1.058-2.76-2.76zm-.788-11.7v6.18a4.1 4.1 0 0 0-1.492-.773v-5.4h1.492zm-7.492 9.742V9.758h1.5v3.292a4.1 4.1 0 0 0-.735 2.325c0 .127.007.255.022.375zM16.124 18a2.643 2.643 0 0 1-2.625-2.625 2.643 2.643 0 0 1 2.625-2.625 2.643 2.643 0 0 1 2.625 2.625A2.64 2.64 0 0 1 16.125 18" style="fill-rule:nonzero"/></svg>

<svg width="100%" height="100%" viewBox="0 0 24 24" version="1.1" xmlns="http://www.w3.org/2000/svg" xmlns:xlink="http://www.w3.org/1999/xlink" xml:space="preserve" style="fill-rule:evenodd;clip-rule:evenodd;stroke-linejoin:round;stroke-miterlimit:2;"><path d="M8.25,17.25L3.75,17.25L3.75,6.008L8.25,6.008L8.25,17.25ZM5.25,15.75L6.75,15.75L6.75,7.508L5.25,7.508L5.25,15.75ZM19.523,17.708C19.98,17.04 20.25,16.238 20.25,15.375C20.25,15.248 20.242,15.12 20.227,15L20.227,4.508L15.727,4.508L15.727,11.273C15.204,11.327 14.696,11.477 14.227,11.715L14.227,8.258L9.727,8.258L9.727,17.25L12.443,17.25C13.145,18.627 14.564,19.498 16.11,19.5C16.973,19.5 17.782,19.23 18.442,18.773L21.202,21.533L22.26,20.475L19.5,17.715L19.523,17.708ZM18.735,6.008L18.735,12.188C18.297,11.829 17.789,11.566 17.243,11.415L17.243,6.015L18.735,6.015L18.735,6.008ZM11.243,15.75L11.243,9.758L12.743,9.758L12.743,13.05C12.268,13.732 12.012,14.544 12.008,15.375C12.008,15.502 12.015,15.63 12.03,15.75L11.242,15.75M16.124,18C14.685,17.997 13.502,16.814 13.499,15.375C13.502,13.936 14.685,12.753 16.124,12.75C17.563,12.753 18.746,13.936 18.749,15.375C18.746,16.814 17.564,17.997 16.125,18" style="fill-rule:nonzero;"/></svg>
